icons/linear-ele-meida-video-camera.svg

<svg xmlns="http://www.w3.org/2000/svg" width="32px" height="32px" viewBox="0 0 32 32" version="1.1">
    <title>linear-ele-meida-video-camera</title>
    <g id="linear-ele-meida-video-camera" stroke-width="1" fill-rule="evenodd">
        <path d="M23,6 C23.5522847,6 24,6.44771525 24,7 L24,10.881 L28.5527864,8.60557281 C29.2176875,8.27312226 30,8.75661798 30,9.5 L30,22.5 C30,23.243382 29.2176875,23.7268777 28.5527864,23.3944272 L24,21.118 L24,25 C24,25.5522847 23.5522847,26 23,26 L3,26 C2.44771525,26 2,25.5522847 2,25 L2,7 C2,6.44771525 2.44771525,6 3,6 L23,6 Z M22,8 L4,8 L4,24 L22,24 L22,8 Z M28,11.118 L24,13.117 L24,18.882 L28,20.882 L28,11.118 Z M11,10 C11.5522847,10 12,10.4477153 12,11 C12,11.5522847 11.5522847,12 11,12 L7,12 C6.44771525,12 6,11.5522847 6,11 C6,10.4477153 6.44771525,10 7,10 L11,10 Z" id="&#24418;&#29366;" fill-rule="nonzero" />
    </g>
</svg>

<svg xmlns="http://www.w3.org/2000/svg" viewBox="0 0 32 32"><path fill="currentColor" d="M23 6a1 1 0 0 1 1 1v3.881l4.553-2.275A1 1 0 0 1 30 9.5v13a1 1 0 0 1-1.447.894L24 21.118V25a1 1 0 0 1-1 1H3a1 1 0 0 1-1-1V7a1 1 0 0 1 1-1zm-1 2H4v16h18zm6 3.118-4 1.999v5.765l4 2zM11 10a1 1 0 0 1 0 2H7a1 1 0 0 1 0-2z"/></svg>
